X:3
T: Say No More (©Mark Simos, used with permission)
M: C|
L: 1/8
K: C
%%text Play pickup
ag| "C"ecag ecag | (3ege c2 c2 Bc|"G"dedc BGAB | "C" cdef "G"g2ag |
"C"ecag ecag |ec-cd c2 Bc|"G"dedc BGAB |"C"c6 :|
|:AB|"Am"c2 B2 AE3 | "F"F6 AB|"Am"c2 B2 AE3|"Dmin"F4 "E7"E4 |
"Am"cABc AGEG |"F"FE F2 "F#dim"A4| "G"G^FGA G=F DB,| "C"C6:|
%%text Internal tag ending (depending on dance):
| "G"G^FGA G=F D2| "G"G^FGA G=F D2| "G"G^FGA G=F DB,|"C"C6|]
%%text 08/10/2009 For use only by Roaring Jelly members
